X:597
T:Bonny Doon
R:Jig
B:Kerr's Fourth p28
S:Kerr's Fourth p28
Z:Transcription, chords:Mike Long
M:6/8
L:1/8
K:G
D|\
"G"G2G AGA|"G"BdB "D"AGA|"G"BAG "C"GED|"G"DGB "D"A2D|\
"G"G2G AGA|"G"BdB "D"AGA|"G"BAG "C"GED|"D"DEF "G"G2:|
|:B|\
"G"d2e dBG|d2e dBG|dBG dBG|"C"edB "D"A2D|\
"G"G2G AGA|"G"BdB "D"AGA|"G"BAG "C"GED|"D"DEF "G"G2:|
